X: 31960
T: Pearl, The
R: reel
M: 4/4
K: Dmajor
|:DE|"D"F4 "A/C#"E3D|"Bm"D4 "G"d2e2|"D"f4 "A"A3F|"D/F#"A4 "Em"B2"F#m"cB/c/|
"G"d4 "F#m"c3D|"G"B3d/B/ "D"A3F/E/|"Bm"F4 "F#m"E3D|"G"B,6:|
d3/2e/|:"D"f4 "A"A3F|"D/F#"A4 "Em"B2"F#m"cB/c/|"G"d4 D3E|"F#m"F4 "D7"E3D|
[1"G"D4 "Em"B3A|"D"F4 "Bm"D3"E7/G#"E|"D/A"F4 "Em"E3"D/F#"D|"G"B,4 d3e:|
[2"G"D4 "E7/G#"B3A|"D/A"F4 "Bm"D3"G"E|"D/F#"F4 "Em"E3"D/F#"D|"G"B,6||

